public/icons/globe.svg

<svg width="80" height="80" viewBox="0 0 80 80" fill="none" xmlns="http://www.w3.org/2000/svg">
<path fill-rule="evenodd" clip-rule="evenodd" d="M39.9279 1.17869C51.3017 0.593081 64.2082 -2.69324 72.557 5.16654C81.0228 13.1365 80.5345 26.622 79.3344 38.2769C78.2738 48.5784 73.4856 57.6836 66.3838 65.123C59.1417 72.7093 50.2799 78.4567 39.9279 79.5567C28.3415 80.788 15.4129 79.8705 7.28296 71.4035C-0.790425 62.9954 -0.297596 50.0011 0.291439 38.2769C0.841551 27.3275 2.50826 15.7976 10.4501 8.3643C18.1722 1.1367 29.4361 1.7189 39.9279 1.17869Z" fill="#F5CDE2"/>
<path d="M52.7198 44.0001H46.6665C45.9593 44.0001 45.281 44.281 44.7809 44.7811C44.2808 45.2812 43.9998 45.9595 43.9998 46.6667V52.7201M33.3332 28.4534V30.6667C33.3332 31.7276 33.7546 32.745 34.5047 33.4952C35.2549 34.2453 36.2723 34.6667 37.3332 34.6667C38.0404 34.6667 38.7187 34.9477 39.2188 35.4478C39.7189 35.9479 39.9998 36.6262 39.9998 37.3334C39.9998 38.8001 41.1998 40.0001 42.6665 40.0001C43.3737 40.0001 44.052 39.7191 44.5521 39.219C45.0522 38.7189 45.3332 38.0407 45.3332 37.3334C45.3332 35.8667 46.5332 34.6667 47.9998 34.6667H52.2265M38.6665 53.2667V48.0001C38.6665 47.2928 38.3856 46.6146 37.8855 46.1145C37.3854 45.6144 36.7071 45.3334 35.9998 45.3334C35.2926 45.3334 34.6143 45.0525 34.1142 44.5524C33.6141 44.0523 33.3332 43.374 33.3332 42.6667V41.3334C33.3332 40.6262 33.0522 39.9479 32.5521 39.4478C32.052 38.9477 31.3737 38.6667 30.6665 38.6667H26.7332M53.3332 40.0001C53.3332 47.3639 47.3636 53.3334 39.9998 53.3334C32.636 53.3334 26.6665 47.3639 26.6665 40.0001C26.6665 32.6363 32.636 26.6667 39.9998 26.6667C47.3636 26.6667 53.3332 32.6363 53.3332 40.0001Z" stroke="#235753" stroke-width="2" stroke-linecap="round" stroke-linejoin="round"/>
</svg>

<svg width="80" height="80" fill="none" xmlns="http://www.w3.org/2000/svg"><path fill-rule="evenodd" clip-rule="evenodd" d="M39.928 1.179c11.374-.586 24.28-3.872 32.629 3.988 8.466 7.97 7.977 21.455 6.777 33.11-1.06 10.301-5.848 19.407-12.95 26.846-7.242 7.586-16.104 13.334-26.456 14.434-11.586 1.231-24.515.314-32.645-8.154C-.79 62.995-.297 50.001.291 38.277c.55-10.95 2.217-22.48 10.16-29.913C18.171 1.137 29.435 1.72 39.927 1.18z" fill="#F5CDE2"/><path d="M52.72 44h-6.053A2.667 2.667 0 0 0 44 46.667v6.053M33.333 28.453v2.214a4 4 0 0 0 4 4A2.667 2.667 0 0 1 40 37.333C40 38.8 41.2 40 42.666 40a2.667 2.667 0 0 0 2.667-2.667c0-1.466 1.2-2.666 2.667-2.666h4.227m-13.56 18.6V48A2.666 2.666 0 0 0 36 45.333a2.667 2.667 0 0 1-2.667-2.666v-1.334a2.667 2.667 0 0 0-2.666-2.666h-3.934M53.333 40c0 7.364-5.97 13.333-13.333 13.333-7.364 0-13.334-5.97-13.334-13.333 0-7.364 5.97-13.333 13.334-13.333S53.333 32.637 53.333 40z" stroke="#235753" stroke-width="2" stroke-linecap="round" stroke-linejoin="round"/></svg>
